icon/hi/cube-transparent-outline.svg

<svg width="24" height="24" fill="none" xmlns="http://www.w3.org/2000/svg"><path d="m14 10-2 1m0 0-2-1m2 1v2.5M20 7l-2 1m2-1-2-1m2 1v2.5M14 4l-2-1-2 1M4 7l2-1M4 7l2 1M4 7v2.5M12 21l-2-1m2 1 2-1m-2 1v-2.5M6 18l-2-1v-2.5M18 18l2-1v-2.5" stroke="#374151" stroke-width="2" stroke-linecap="round" stroke-linejoin="round"/></svg>

<svg viewBox="0 0 24 24" fill="none" xmlns="http://www.w3.org/2000/svg" height="1em" width="1em">
  <path d="M14 10L12 11M12 11L10 10M12 11V13.5M20 7L18 8M20 7L18 6M20 7V9.5M14 4L12 3L10 4M4 7L6 6M4 7L6 8M4 7V9.5M12 21L10 20M12 21L14 20M12 21V18.5M6 18L4 17V14.5M18 18L20 17V14.5" stroke="#374151" stroke-width="2" stroke-linecap="round" stroke-linejoin="round"/>
</svg>
